Icons/com_jv_flyne.svg

<svg viewBox="0 0 48 48" xmlns:xlink="http://www.w3.org/1999/xlink">
 <defs>
  <linearGradient id="0">
   <stop stop-opacity="0"/>
   <stop offset="1"/>
  </linearGradient>
  <linearGradient xlink:href="#0" id="1" gradientUnits="userSpaceOnUse" gradientTransform="translate(4e-7,-48)" y1="47" x2="0" y2="1"/>
  <clipPath id="2">
   <g transform="translate(0,-1004.3622)">
    <rect rx="4" y="1005.36" x="1" height="46" width="46" fill="#1890d0"/>
   </g>
  </clipPath>
  <clipPath id="3">
   <g transform="translate(0,-1004.3622)">
    <rect rx="4" y="1005.36" x="1" height="46" width="46" fill="#1890d0"/>
   </g>
  </clipPath>
 </defs>
 <g>
  <g transform="translate(0,-1004.3622)">
   <path d="m 5,1006.3622 c -2.216,0 -4,1.784 -4,4 l 0,37.25 c 0,2.216 1.784,4 4,4 l 38,0 c 2.216,0 4,-1.784 4,-4 l 0,-37.25 c 0,-2.216 -1.784,-4 -4,-4 l -38,0 z m -4,41.5 0,0.5 c 0,2.216 1.784,4 4,4 l 38,0 c 2.216,0 4,-1.784 4,-4 l 0,-0.5 c 0,2.216 -1.784,4 -4,4 l -38,0 c -2.216,0 -4,-1.784 -4,-4 z" opacity="0.02"/>
   <path d="m 1,1047.6122 0,0.25 c 0,2.216 1.784,4 4,4 l 38,0 c 2.216,0 4,-1.784 4,-4 l 0,-0.25 c 0,2.216 -1.784,4 -4,4 l -38,0 c -2.216,0 -4,-1.784 -4,-4 z" opacity="0.05"/>
   <rect width="46" height="46" x="1" y="1005.61" rx="4" opacity="0.1"/>
  </g>
 </g>
 <g>
  <g transform="translate(0,-1004.3622)">
   <rect rx="4" y="1005.36" x="1" height="46" width="46" fill="#ffd015"/>
  </g>
 </g>
 <g>
  <rect transform="scale(1,-1)" width="46" height="46" x="1" y="-46.998" rx="4" opacity="0.1" fill="url(#1)"/>
 </g>
 <g>
  <g clip-path="url(#2)">
   <g opacity="0.1">
    <g>
     <path d="M 12.878906 23.757812 L 16.4375 20.199219 L 32.035156 19.570312 L 32.980469 25.851562 L 30.257812 30.667969 L 25.652344 35.167969 L 19.367188 34.019531 L 16.125 31.609375 L 13.820312 28.78125 Z M 12.878906 23.757812 "/>
     <path d="M 22.183594 35.886719 C 16.832031 34.917969 12.695312 30.820312 12.0625 25.867188 C 11.878906 24.40625 12.105469 22.457031 12.652344 20.851562 C 14.792969 14.554688 22.152344 10.121094 30.664062 10.003906 C 31.585938 9.992188 32.21875 10 32.074219 10.027344 C 29.441406 14.375 29.84375 16.878906 33.832031 18.878906 C 34.980469 19.75 34.949219 19.886719 35.476562 20.957031 C 36.238281 23.578125 36.0625 26.199219 35.621094 28.457031 C 34.613281 32.128906 31.597656 34.78125 27.308594 35.769531 C 26.261719 36.011719 23.25 36.082031 22.183594 35.886719 Z M 25.96875 32 L 16.988281 31 L 24.972656 34 Z M 25.628906 28.632812 C 27.730469 28.09375 29.699219 25.488281 30.796875 21.785156 C 31.050781 20.929688 31.085938 20.578125 30.914062 20.644531 C 30.796875 20.6875 26.171875 23.980469 23.90625 25.632812 C 21.589844 27.320312 20.957031 27.804688 20.957031 27.882812 C 20.957031 28.070312 22.488281 28.640625 23.351562 28.777344 C 23.957031 28.871094 24.949219 28.808594 25.628906 28.632812 Z M 17.964844 28.136719 C 18.253906 28.074219 18.417969 27.996094 18.398438 27.925781 C 18.34375 27.699219 13.816406 23.640625 13.699219 23.710938 C 13.539062 23.808594 13.953125 25.335938 14.355469 26.125 C 15.246094 27.875 16.332031 28.480469 17.964844 28.136719 Z M 17.964844 28.136719 "/>
    </g>
   </g>
  </g>
 </g>
 <g>
  <g clip-path="url(#3)">
   <g transform="translate(0,-1)">
    <g>
     <path d="M 12.878906 23.757812 L 16.4375 20.199219 L 32.035156 19.570312 L 32.980469 25.851562 L 30.257812 30.667969 L 25.652344 35.167969 L 19.367188 34.019531 L 16.125 31.609375 L 13.820312 28.78125 Z M 12.878906 23.757812 " fill="#f9f9f9"/>
     <path d="M 22.183594 35.886719 C 16.832031 34.917969 12.695312 30.820312 12.0625 25.867188 C 11.878906 24.40625 12.105469 22.457031 12.652344 20.851562 C 14.792969 14.554688 22.152344 10.121094 30.664062 10.003906 C 31.585938 9.992188 32.21875 10 32.074219 10.027344 C 29.441406 14.375 29.84375 16.878906 33.832031 18.878906 C 34.980469 19.75 34.949219 19.886719 35.476562 20.957031 C 36.238281 23.578125 36.0625 26.199219 35.621094 28.457031 C 34.613281 32.128906 31.597656 34.78125 27.308594 35.769531 C 26.261719 36.011719 23.25 36.082031 22.183594 35.886719 Z M 25.96875 32 L 16.988281 31 L 24.972656 34 Z M 25.628906 28.632812 C 27.730469 28.09375 29.699219 25.488281 30.796875 21.785156 C 31.050781 20.929688 31.085938 20.578125 30.914062 20.644531 C 30.796875 20.6875 26.171875 23.980469 23.90625 25.632812 C 21.589844 27.320312 20.957031 27.804688 20.957031 27.882812 C 20.957031 28.070312 22.488281 28.640625 23.351562 28.777344 C 23.957031 28.871094 24.949219 28.808594 25.628906 28.632812 Z M 17.964844 28.136719 C 18.253906 28.074219 18.417969 27.996094 18.398438 27.925781 C 18.34375 27.699219 13.816406 23.640625 13.699219 23.710938 C 13.539062 23.808594 13.953125 25.335938 14.355469 26.125 C 15.246094 27.875 16.332031 28.480469 17.964844 28.136719 Z M 17.964844 28.136719 " fill="#c02e19"/>
    </g>
   </g>
  </g>
 </g>
 <g>
  <g transform="translate(0,-1004.3622)">
   <path d="m 1,1043.3622 0,4 c 0,2.216 1.784,4 4,4 l 38,0 c 2.216,0 4,-1.784 4,-4 l 0,-4 c 0,2.216 -1.784,4 -4,4 l -38,0 c -2.216,0 -4,-1.784 -4,-4 z" opacity="0.1"/>
  </g>
 </g>
</svg>

<svg viewBox="0 0 48 48"><defs><linearGradient id="linearGradient3764" x1="1" x2="47" gradientUnits="userSpaceOnUse" gradientTransform="translate(-48.000001,0.00221467)"><stop stop-color="#ffcc01" stop-opacity="1"/><stop offset="1" stop-color="#ffd015" stop-opacity="1"/></linearGradient><clipPath id="clipPath-872228066"><g transform="translate(0,-1004.3622)"><rect rx="4" y="1005.36" x="1" height="46" width="46" fill="#1890d0"/></g></clipPath><clipPath id="clipPath-885739578"><g transform="translate(0,-1004.3622)"><rect rx="4" y="1005.36" x="1" height="46" width="46" fill="#1890d0"/></g></clipPath></defs><g><path d="m 1 43 l 0 0.25 c 0 2.216 1.784 4 4 4 l 38 0 c 2.216 0 4 -1.784 4 -4 l 0 -0.25 c 0 2.216 -1.784 4 -4 4 l -38 0 c -2.216 0 -4 -1.784 -4 -4 z m 0 0.5 l 0 0.5 c 0 2.216 1.784 4 4 4 l 38 0 c 2.216 0 4 -1.784 4 -4 l 0 -0.5 c 0 2.216 -1.784 4 -4 4 l -38 0 c -2.216 0 -4 -1.784 -4 -4 z" opacity="0.02"/><path d="m 1 43.25 l 0 0.25 c 0 2.216 1.784 4 4 4 l 38 0 c 2.216 0 4 -1.784 4 -4 l 0 -0.25 c 0 2.216 -1.784 4 -4 4 l -38 0 c -2.216 0 -4 -1.784 -4 -4 z" opacity="0.05"/><path d="m 1 43 l 0 0.25 c 0 2.216 1.784 4 4 4 l 38 0 c 2.216 0 4 -1.784 4 -4 l 0 -0.25 c 0 2.216 -1.784 4 -4 4 l -38 0 c -2.216 0 -4 -1.784 -4 -4 z" opacity="0.1"/></g><g><rect width="46" height="46" x="-47" y="1" rx="4" transform="matrix(0,-1,1,0,0,0)" fill="url(#linearGradient3764)" fill-opacity="1"/></g><g><g clip-path="url(#clipPath-872228066)"><g opacity="0.1"><!-- color: #ffd015 --><g><path d="m 12.879 23.758 l 3.559 -3.559 l 15.598 -0.629 l 0.945 6.281 l -2.723 4.816 l -4.605 4.5 l -6.285 -1.148 l -3.242 -2.41 l -2.305 -2.828 m -0.941 -5.02" fill="#000"/><path d="m 22.18 35.887 c -5.352 -0.969 -9.488 -5.066 -10.121 -10.02 c -0.184 -1.461 0.043 -3.41 0.59 -5.02 c 2.141 -6.297 9.5 -10.73 18.01 -10.848 c 0.922 -0.012 1.555 -0.004 1.41 0.023 c -2.633 4.348 -2.23 6.852 1.758 8.852 c 1.148 0.871 1.117 1.01 1.645 2.078 c 0.762 2.621 0.586 5.242 0.145 7.5 c -1.01 3.672 -4.02 6.324 -8.313 7.313 c -1.047 0.242 -4.059 0.313 -5.125 0.117 m 3.785 -3.887 l -8.98 -1 l 7.984 3 m 0.656 -5.367 c 2.102 -0.539 4.07 -3.145 5.168 -6.848 c 0.254 -0.855 0.289 -1.207 0.117 -1.141 c -0.117 0.043 -4.742 3.336 -7.01 4.988 c -2.316 1.688 -2.949 2.172 -2.949 2.25 c 0 0.188 1.531 0.758 2.395 0.895 c 0.605 0.094 1.598 0.031 2.277 -0.145 m -7.664 -0.496 c 0.289 -0.063 0.453 -0.141 0.434 -0.211 c -0.055 -0.227 -4.582 -4.285 -4.699 -4.215 c -0.16 0.098 0.254 1.625 0.656 2.414 c 0.891 1.75 1.977 2.355 3.609 2.01 m 0 0" fill="#000"/></g></g></g></g><g><g clip-path="url(#clipPath-885739578)"><g transform="translate(0,-1)"><!-- color: #ffd015 --><g><path d="m 12.879 23.758 l 3.559 -3.559 l 15.598 -0.629 l 0.945 6.281 l -2.723 4.816 l -4.605 4.5 l -6.285 -1.148 l -3.242 -2.41 l -2.305 -2.828 m -0.941 -5.02" fill="#f9f9f9"/><path d="m 22.18 35.887 c -5.352 -0.969 -9.488 -5.066 -10.121 -10.02 c -0.184 -1.461 0.043 -3.41 0.59 -5.02 c 2.141 -6.297 9.5 -10.73 18.01 -10.848 c 0.922 -0.012 1.555 -0.004 1.41 0.023 c -2.633 4.348 -2.23 6.852 1.758 8.852 c 1.148 0.871 1.117 1.01 1.645 2.078 c 0.762 2.621 0.586 5.242 0.145 7.5 c -1.01 3.672 -4.02 6.324 -8.313 7.313 c -1.047 0.242 -4.059 0.313 -5.125 0.117 m 3.785 -3.887 l -8.98 -1 l 7.984 3 m 0.656 -5.367 c 2.102 -0.539 4.07 -3.145 5.168 -6.848 c 0.254 -0.855 0.289 -1.207 0.117 -1.141 c -0.117 0.043 -4.742 3.336 -7.01 4.988 c -2.316 1.688 -2.949 2.172 -2.949 2.25 c 0 0.188 1.531 0.758 2.395 0.895 c 0.605 0.094 1.598 0.031 2.277 -0.145 m -7.664 -0.496 c 0.289 -0.063 0.453 -0.141 0.434 -0.211 c -0.055 -0.227 -4.582 -4.285 -4.699 -4.215 c -0.16 0.098 0.254 1.625 0.656 2.414 c 0.891 1.75 1.977 2.355 3.609 2.01 m 0 0" fill="#c02e19"/></g></g></g></g><g><g transform="translate(0,-1004.3622)"><path d="m 1 1043.36 0 4 c 0 2.216 1.784 4 4 4 l 38 0 c 2.216 0 4 -1.784 4 -4 l 0 -4 c 0 2.216 -1.784 4 -4 4 l -38 0 c -2.216 0 -4 -1.784 -4 -4 z" opacity="0.1"/></g></g></svg>
